wp-content/themes/KOOEN/assets/img/common/Q＆A.svg

<svg fill="none" height="20" viewBox="0 0 39 20" width="39" xmlns="http://www.w3.org/2000/svg"><path d="m6.2 19c-.9 0-1.725-.2083-2.475-.625-.73333-.4167-1.36667-1.0083-1.9-1.775-.51667-.7833-.925-1.7333-1.225-2.85-.283333-1.1167-.425-2.3667-.425-3.75 0-1.36667.141667-2.60833.425-3.725.3-1.11667.71667-2.075 1.25-2.875s1.175-1.41667 1.925-1.85c.75-.45 1.58333-.675001 2.5-.675001s1.75.225001 2.5.675001c.75.43333 1.3917 1.05 1.925 1.85s.9417 1.75833 1.225 2.875c.2833 1.1.425 2.31667.425 3.65 0 .7833-.075 1.55-.225 2.3-.15.7333-.35 1.4167-.6 2.05s-.5417 1.1917-.875 1.675c-.3333.4667-.68333.8083-1.05 1.025v.075h3.4v1.95zm3.775-9c0-.96667-.08333-1.875-.25-2.725s-.40833-1.58333-.725-2.2c-.31667-.63333-.70833-1.125-1.175-1.475-.45-.36667-.96667-.55-1.55-.55s-1.10833.18333-1.575.55c-.46667.35-.85833.84167-1.175 1.475-.31667.61667-.55833 1.35-.725 2.2-.16667.83333-.25 1.74167-.25 2.725 0 .9833.08333 1.9.25 2.75.16667.8333.40833 1.5667.725 2.2.33333.6167.73333 1.1083 1.2 1.475.46667.35.99167.525 1.575.525.6 0 1.125-.1917 1.575-.575.46667-.3833.85-.8917 1.15-1.525.31667-.6333.55-1.3667.7-2.2.16667-.85.25-1.7333.25-2.65zm14.2996 9-1.45-2.175c-.3333.7-.8167 1.3083-1.45 1.825-.6167.5-1.425.75-2.425.75-1.3167 0-2.375-.4417-3.175-1.325-.7833-.9-1.175-2.1583-1.175-3.775 0-1.25.2833-2.2833.85-3.1.5833-.8333 1.3-1.51667 2.15-2.05-.5333-.78333-.9083-1.475-1.125-2.075-.2-.61667-.3-1.275-.3-1.975 0-.66667.0917-1.25833.275-1.775.2-.53333.475-.98333.825-1.35s.7583-.65 1.225-.85c.4667-.200001.975-.300001 1.525-.300001 1.0667 0 1.9333.358331 2.6 1.075001.6833.7 1.025 1.65833 1.025 2.875 0 .58333-.0917 1.10833-.275 1.575s-.4333.89167-.75 1.275c-.3.38333-.6583.74167-1.075 1.075-.4.31667-.825.61667-1.275.9l2.5 3.675 1.475-3.825h2.2l-2.4 5.45 2.85 4.1zm-2.65-14.075c0-.7-.1417-1.26667-.425-1.7-.2667-.43333-.6583-.65-1.175-.65-.5333 0-.9583.23333-1.275.7s-.475 1.05833-.475 1.775c0 .6.0833 1.14167.25 1.625.1833.48333.4667 1.01667.85 1.6.6167-.4 1.1417-.85833 1.575-1.375.45-.53333.675-1.19167.675-1.975zm-3.025 5.7c-.25.1667-.4917.3583-.725.575-.2167.2167-.4167.4667-.6.75s-.3333.6083-.45.975c-.1.35-.15.75-.15 1.2 0 1.0333.225 1.85.675 2.45.4667.5833 1.0667.875 1.8.875.3167 0 .6083-.0583.875-.175.2667-.1333.5-.3083.7-.525.2167-.2167.4-.4583.55-.725.1667-.2667.3-.5417.4-.825zm18.0039 8.375-1-4.15h-5.125l-1.025 4.15h-2.275l4.45-17.7h2.975l4.35 17.7zm-3.475-15.6h-.1l-2.25 9.675h4.525z" fill="#fff"/></svg>

<svg width="39" height="20" viewBox="0 0 39 20" fill="none" xmlns="http://www.w3.org/2000/svg">
<path d="M6.2 19C5.3 19 4.475 18.7917 3.725 18.375C2.99167 17.9583 2.35833 17.3667 1.825 16.6C1.30833 15.8167 0.9 14.8667 0.6 13.75C0.316667 12.6333 0.175 11.3833 0.175 10C0.175 8.63333 0.316667 7.39167 0.6 6.275C0.9 5.15833 1.31667 4.2 1.85 3.4C2.38333 2.6 3.025 1.98333 3.775 1.55C4.525 1.1 5.35833 0.874999 6.275 0.874999C7.19167 0.874999 8.025 1.1 8.775 1.55C9.525 1.98333 10.1667 2.6 10.7 3.4C11.2333 4.2 11.6417 5.15833 11.925 6.275C12.2083 7.375 12.35 8.59167 12.35 9.925C12.35 10.7083 12.275 11.475 12.125 12.225C11.975 12.9583 11.775 13.6417 11.525 14.275C11.275 14.9083 10.9833 15.4667 10.65 15.95C10.3167 16.4167 9.96667 16.7583 9.6 16.975V17.05H13V19H6.2ZM9.975 10C9.975 9.03333 9.89167 8.125 9.725 7.275C9.55833 6.425 9.31667 5.69167 9 5.075C8.68333 4.44167 8.29167 3.95 7.825 3.6C7.375 3.23333 6.85833 3.05 6.275 3.05C5.69167 3.05 5.16667 3.23333 4.7 3.6C4.23333 3.95 3.84167 4.44167 3.525 5.075C3.20833 5.69167 2.96667 6.425 2.8 7.275C2.63333 8.10833 2.55 9.01667 2.55 10C2.55 10.9833 2.63333 11.9 2.8 12.75C2.96667 13.5833 3.20833 14.3167 3.525 14.95C3.85833 15.5667 4.25833 16.0583 4.725 16.425C5.19167 16.775 5.71667 16.95 6.3 16.95C6.9 16.95 7.425 16.7583 7.875 16.375C8.34167 15.9917 8.725 15.4833 9.025 14.85C9.34167 14.2167 9.575 13.4833 9.725 12.65C9.89167 11.8 9.975 10.9167 9.975 10ZM24.2746 19L22.8246 16.825C22.4913 17.525 22.0079 18.1333 21.3746 18.65C20.7579 19.15 19.9496 19.4 18.9496 19.4C17.6329 19.4 16.5746 18.9583 15.7746 18.075C14.9913 17.175 14.5996 15.9167 14.5996 14.3C14.5996 13.05 14.8829 12.0167 15.4496 11.2C16.0329 10.3667 16.7496 9.68333 17.5996 9.15C17.0663 8.36667 16.6913 7.675 16.4746 7.075C16.2746 6.45833 16.1746 5.8 16.1746 5.1C16.1746 4.43333 16.2663 3.84167 16.4496 3.325C16.6496 2.79167 16.9246 2.34167 17.2746 1.975C17.6246 1.60833 18.0329 1.325 18.4996 1.125C18.9663 0.924999 19.4746 0.824999 20.0246 0.824999C21.0913 0.824999 21.9579 1.18333 22.6246 1.9C23.3079 2.6 23.6496 3.55833 23.6496 4.775C23.6496 5.35833 23.5579 5.88333 23.3746 6.35C23.1913 6.81667 22.9413 7.24167 22.6246 7.625C22.3246 8.00833 21.9663 8.36667 21.5496 8.7C21.1496 9.01667 20.7246 9.31667 20.2746 9.6L22.7746 13.275L24.2496 9.45H26.4496L24.0496 14.9L26.8996 19H24.2746ZM21.6246 4.925C21.6246 4.225 21.4829 3.65833 21.1996 3.225C20.9329 2.79167 20.5413 2.575 20.0246 2.575C19.4913 2.575 19.0663 2.80833 18.7496 3.275C18.4329 3.74167 18.2746 4.33333 18.2746 5.05C18.2746 5.65 18.3579 6.19167 18.5246 6.675C18.7079 7.15833 18.9913 7.69167 19.3746 8.275C19.9913 7.875 20.5163 7.41667 20.9496 6.9C21.3996 6.36667 21.6246 5.70833 21.6246 4.925ZM18.5996 10.625C18.3496 10.7917 18.1079 10.9833 17.8746 11.2C17.6579 11.4167 17.4579 11.6667 17.2746 11.95C17.0913 12.2333 16.9413 12.5583 16.8246 12.925C16.7246 13.275 16.6746 13.675 16.6746 14.125C16.6746 15.1583 16.8996 15.975 17.3496 16.575C17.8163 17.1583 18.4163 17.45 19.1496 17.45C19.4663 17.45 19.7579 17.3917 20.0246 17.275C20.2913 17.1417 20.5246 16.9667 20.7246 16.75C20.9413 16.5333 21.1246 16.2917 21.2746 16.025C21.4413 15.7583 21.5746 15.4833 21.6746 15.2L18.5996 10.625ZM36.6035 19L35.6035 14.85H30.4785L29.4535 19H27.1785L31.6285 1.3H34.6035L38.9535 19H36.6035ZM33.1285 3.4H33.0285L30.7785 13.075H35.3035L33.1285 3.4Z" fill="white"/>
</svg>
